src/assets/icons/states/error-phone.svg

<?xml version="1.0" encoding="UTF-8"?>
<svg width="144px" height="144px" viewBox="0 0 144 144" version="1.1" xmlns="http://www.w3.org/2000/svg" xmlns:xlink="http://www.w3.org/1999/xlink">
    <title>notif-error</title>
    <defs>
        <ellipse id="path-1" cx="72" cy="72.3478261" rx="71.6538462" ry="72"></ellipse>
        <linearGradient x1="-8.33457878%" y1="66.1019533%" x2="438.007851%" y2="-77.8206366%" id="linearGradient-3">
            <stop stop-color="#010101" stop-opacity="0" offset="0%"></stop>
            <stop stop-color="#010101" offset="95%"></stop>
        </linearGradient>
        <linearGradient x1="67.4859558%" y1="23.8054348%" x2="-27.7066546%" y2="166.507508%" id="linearGradient-4">
            <stop stop-color="#010101" stop-opacity="0" offset="0%"></stop>
            <stop stop-color="#010101" offset="100%"></stop>
        </linearGradient>
        <path d="M57.0729773,30.890319 L88.2943642,30.8687555 C90.3764479,30.8673174 92.0654759,32.554014 92.0669139,34.6360976 C92.0669151,34.637845 92.0669151,34.6395924 92.0669139,34.6413398 L92.0243385,95.4746007 C92.0228827,97.5546374 90.3370331,99.2404715 88.2569964,99.2419081 L57.0356094,99.2634716 C54.9535258,99.2649096 53.2644978,97.5782131 53.2630598,95.4961295 C53.2630585,95.494382 53.2630586,95.4926346 53.2630598,95.4908872 L53.3056352,34.6576264 C53.3070909,32.5775897 54.9929406,30.8917556 57.0729773,30.890319 Z" id="path-5"></path>
    </defs>
    <g id="notif-error" stroke="none" stroke-width="1" fill="none" fill-rule="evenodd">
        <g id="Group-7" transform="translate(0.000000, 26.000000)">
            <g id="Group-5">
                <ellipse id="Oval" fill="#DC0000" opacity="0.297735305" cx="72" cy="72.3478261" rx="55.0384615" ry="55.3043478"></ellipse>
                <ellipse id="Oval" fill="#DC0000" opacity="0.497465588" cx="72.5192308" cy="72.8695652" rx="38.9423077" ry="39.1304348"></ellipse>
                <mask id="mask-2" fill="white">
                    <use xlink:href="#path-1"></use>
                </mask>
                <use id="Mask" fill="#DC0000" opacity="0.148414249" xlink:href="#path-1"></use>
                <path d="M141.564818,64.8212214 C139.886186,67.9674736 134.857343,67.611689 132.663836,70.3602995 C131.711671,71.539272 131.464814,73.150767 131.253221,74.6576195 C130.279897,81.6895977 129.271307,88.7006474 128.269771,95.7116971 C131.013417,97.3790014 133.862859,99.1997815 135.273474,102.080939 C136.684089,104.962097 135.788349,109.057108 132.748473,110.11051 C129.46174,111.156935 126.450077,108.199039 123.515998,106.399188 C120.095256,104.250528 114.6926,104.013338 112.760058,107.557232 C114.6926,108.687371 116.674515,109.894248 117.951121,111.742933 C119.227728,113.591618 119.608594,116.249538 118.219138,118.021485 C116.187852,120.518953 112.216971,119.709718 109.205308,118.474936 C106.193645,117.240154 102.58247,115.921658 99.9728323,117.861033 C102.000448,119.408531 103.691646,121.344658 104.94525,123.553587 C105.699929,124.844178 106.243016,126.504506 105.4037,127.739288 C104.564384,128.97407 102.716479,128.97407 101.171855,128.702 C94.0341428,127.39048 87.5664727,122.660637 80.4005482,122.339734 C79.9660651,122.311857 79.5302124,122.311857 79.0957293,122.339734 C71.6829471,122.555995 65.5749838,127.739288 59.1919507,131.499443 C58.9404871,131.657757 58.6789828,131.7999 58.4090593,131.92499 C53.5582987,134.738537 48.3021143,136.803971 42.8217628,138.050066 C39.9652673,138.698849 37.1158249,138.238422 34.322807,139.068586 C31.14187,140.010369 28.5392852,142.026482 25.9578597,144.091428 C18.4061917,150.194288 -2.96185802,165.472268 -9.58949921,172.585673 C-11.5858795,164.925351 -15.4705193,156.545116 -17.3888824,150.560785 C-19.1235626,145.149453 -19.0286778,142.208391 -18.4861049,134.287735 C-16.6170399,133.485476 -1.40101956,123.797753 -1.23879883,123.69311 C6.14342002,119.339981 13.5467981,115.005455 20.9713354,110.689532 C21.5164137,110.320452 22.1227816,110.048909 22.7628165,109.887272 C24.8293676,109.538464 26.4022034,111.470862 27.488377,113.298619 C31.1277639,108.059516 36.3399866,103.922648 41.6932707,100.434563 C47.610801,96.5139565 53.8316134,93.0747052 60.0312666,89.6075493 C65.7301515,86.412464 71.4572487,83.2452833 77.1631866,80.0432218 C83.5109544,76.5551374 89.9504122,72.9554343 96.8201076,70.4858705 C102.688266,68.3930199 108.852654,67.1024286 114.607964,64.7096027 C120.476122,62.3167768 124.602171,60.0355696 130.830037,59.0170489 C133.249242,58.6403358 137.177805,58.1310755 139.251409,59.3658574 C141.325013,60.6006393 142.679203,62.6655852 141.564818,64.8212214 Z" id="Path" fill="#663C29" fill-rule="nonzero" mask="url(#mask-2)" transform="translate(61.565121, 115.585673) rotate(-50.000000) translate(-61.565121, -115.585673) "></path>
                <path d="M80.7285253,112.483209 C80.2945612,114.182611 78.1107417,114.818102 76.3048909,115.039453 C75.8430326,115.189453 75.4628532,115.528162 75.2549777,115.974838 C74.8237997,115.946306 74.3912626,115.946306 73.9600847,115.974838 C66.6036926,116.196188 60.5421934,121.501465 54.2077169,125.350111 C53.9581662,125.512151 53.6986513,125.657639 53.4307811,125.785673 C52.8638279,123.922042 52.8918256,118.588204 56.7415075,106.328231 C57.4414497,104.186127 58.2253849,101.329989 58.841334,99.2592889 C59.2005517,97.8883665 59.727306,96.5689562 60.4092044,95.3320988 C62.8161417,91.5291725 66.5235141,88.7753767 70.8103449,87.6062449 C71.5930511,87.2869004 72.4709036,87.3153709 73.2321448,87.6847887 C74.0440777,88.1774726 74.149069,89.3056472 73.883091,90.19105 C73.617113,91.0764529 73.0431604,91.8618909 72.7491847,92.7472937 C71.5382848,96.0675544 74.149069,99.3949554 76.1719019,102.336778 C77.8437492,104.706727 79.2280498,107.27453 80.2945612,109.984088 C80.6902485,110.750893 80.841931,111.624405 80.7285253,112.483209 Z" id="Path" fill="url(#linearGradient-3)" fill-rule="nonzero" mask="url(#mask-2)" transform="translate(66.965121, 106.585673) rotate(-50.000000) translate(-66.965121, -106.585673) "></path>
                <path d="M56.417757,26.3783393 L89.4781583,26.2661669 C91.8073335,26.2582641 93.7019096,28.1400272 93.7098123,30.4692024 C93.7098447,30.4787361 93.7098447,30.4882699 93.7098124,30.4978036 L93.4697143,101.347379 C93.4618589,103.665392 91.5846924,105.542567 89.2666787,105.550432 L56.2062774,105.662604 C53.8771022,105.670507 51.9825261,103.788744 51.9746234,101.459569 C51.974591,101.450035 51.974591,101.440501 51.9746233,101.430967 L52.2147214,30.5813922 C52.2225768,28.2633785 54.0997433,26.3862043 56.417757,26.3783393 Z" id="Rectangle" fill="#2E2E2E" fill-rule="nonzero" mask="url(#mask-2)" transform="translate(72.842218, 65.964385) rotate(0.070000) translate(-72.842218, -65.964385) "></path>
                <path d="M56.417757,26.3783393 L89.4781583,26.2661669 C91.8073335,26.2582641 93.7019096,28.1400272 93.7098123,30.4692024 C93.7098447,30.4787361 93.7098447,30.4882699 93.7098124,30.4978036 L93.4697143,101.347379 C93.4618589,103.665392 91.5846924,105.542567 89.2666787,105.550432 L56.2062774,105.662604 C53.8771022,105.670507 51.9825261,103.788744 51.9746234,101.459569 C51.974591,101.450035 51.974591,101.440501 51.9746233,101.430967 L52.2147214,30.5813922 C52.2225768,28.2633785 54.0997433,26.3862043 56.417757,26.3783393 Z" id="Rectangle" stroke="#222222" stroke-width="1.03846154" fill="url(#linearGradient-4)" fill-rule="nonzero" mask="url(#mask-2)" transform="translate(72.842218, 65.964385) rotate(0.070000) translate(-72.842218, -65.964385) "></path>
                <path d="M57.2542674,30.9173132 L88.1635535,30.8124393 C90.2456256,30.805375 91.9392054,32.4875011 91.9462698,34.5695733 C91.9462987,34.5780955 91.9462987,34.5866179 91.9462698,34.5951401 L91.7402021,95.4028209 C91.7331801,97.4749156 90.0551629,99.1529398 87.9830682,99.1599703 L57.0737821,99.2648441 C54.9917099,99.2719085 53.2981302,97.5897823 53.2910658,95.5077102 C53.2910369,95.4991879 53.2910369,95.4906656 53.2910657,95.4821433 L53.4971334,34.6744626 C53.5041554,32.6023679 55.1821727,30.9243437 57.2542674,30.9173132 Z" id="Rectangle" fill="#FFFBFF" fill-rule="nonzero" mask="url(#mask-2)" transform="translate(72.618668, 65.038642) rotate(0.070000) translate(-72.618668, -65.038642) "></path>
                <g id="Group-2" mask="url(#mask-2)">
                    <g transform="translate(53.207198, 30.640762)" id="Group">
                        <g transform="translate(0.053220, 0.225386)"></g>
                    </g>
                </g>
                <mask id="mask-6" fill="white">
                    <use xlink:href="#path-5"></use>
                </mask>
                <use id="Rectangle" fill="#FFFBFF" fill-rule="nonzero" xlink:href="#path-5"></use>
                <rect id="Rectangle" fill="#EEEEEF" mask="url(#mask-6)" x="56.1188885" y="71.5621559" width="33.3488264" height="9.46418787"></rect>
                <rect id="Rectangle-Copy-2" fill="#EEEEEF" mask="url(#mask-6)" x="56.1188885" y="83.8656002" width="33.3488264" height="9.46418787"></rect>
                <rect id="Rectangle-Copy-3" fill="#EEEEEF" mask="url(#mask-6)" x="56.1188885" y="96.1690444" width="33.3488264" height="9.46418787"></rect>
                <rect id="Rectangle" fill="#EEEEEF" mask="url(#mask-6)" x="55.1660649" y="41.2767547" width="34.30165" height="5.67851272" rx="1.65711948"></rect>
                <rect id="Rectangle-Copy" fill="#EEEEEF" mask="url(#mask-6)" x="55.1660649" y="32.7958263" width="34.30165" height="5.67851272" rx="1.65711948"></rect>
                <rect id="Rectangle" fill="#EEEEEF" mask="url(#mask-6)" x="55.5390807" y="52.1674697" width="34.7251271" height="17.2721429"></rect>
                <path d="M30.2059363,94.718937 C33.7740942,92.68174 37.4993001,90.9215641 41.3474403,89.4545281 C48.6062989,86.4945918 55.8721914,83.5208563 63.3912998,81.2991792 C65.6772776,80.6092173 67.9773229,80.0158501 70.2773682,79.4155833 L90.161858,74.1856726 C90.7878642,76.1382646 89.8765009,81.1979492 88.6737249,82.8676569 C84.9207079,88.0780087 81.1435882,89.5937357 75.0592725,91.8477367 C73.3359969,92.4825016 69.8975442,92.476561 68.4345184,93.6011988 C67.370866,94.5374682 66.4262083,95.5961541 65.6210073,96.7543244 C61.2248962,102.274019 54.7889896,106.475887 52.2568296,113.023625 C51.4057425,115.197005 51.0118509,117.570473 49.7528047,119.536864 C48.3460492,121.696445 46.0952403,123.131566 43.8936678,124.490791 C35.4531345,129.727601 26.7593852,135.019608 17.0527719,137.448274 C15.9062253,137.83242 14.6721456,137.889837 13.4936803,137.613865 C12.3439597,137.121039 11.3556137,136.325862 10.6379666,135.316292 C8.04953633,132.328757 5.25712656,129.417118 2.84454079,126.291591 C0.523394124,123.276458 1.63473101,121.385962 3.99104656,118.812405 C9.3285898,112.846592 14.9895896,107.166892 20.9494848,101.797946 C23.8107437,99.1689625 26.9088855,96.7996127 30.2059363,94.718937 Z" id="Path" fill="#663C29" fill-rule="nonzero" mask="url(#mask-6)" transform="translate(45.965121, 105.985673) rotate(-50.000000) translate(-45.965121, -105.985673) "></path>
            </g>
            <path d="M51.610976,54.844848 C51.733796,54.6705759 51.9579679,54.5467976 52.2834917,54.4735132 C52.6090156,54.4002288 52.9346575,54.4002288 53.2604176,54.4735132 L53.2511677,62.6530364 L53.2363866,75.7237321 L51.3065658,80.0388737 L51.610976,54.844848 Z" id="Rectangle" fill="#663C29"></path>
        </g>
        <g id="Icon/24x24/ic-success" transform="translate(59.000000, 76.000000)">
            <circle id="Oval" fill="#FD2D55" cx="14.4" cy="14.3368421" r="8.33684211"></circle>
            <circle id="Oval" fill="#FD4076" cx="10.9894737" cy="1.89473684" r="1.89473684"></circle>
            <circle id="Oval-Copy-10" fill="#FE3B6D" cx="4.92631579" cy="4.92631579" r="1.89473684"></circle>
            <circle id="Oval-Copy-19" fill="#FE3B6D" cx="23.1157895" cy="4.92631579" r="1.89473684"></circle>
            <circle id="Oval-Copy-11" fill="#FE315F" cx="1.89473684" cy="10.9894737" r="1.89473684"></circle>
            <circle id="Oval-Copy-18" fill="#FE315F" cx="26.9052632" cy="10.9894737" r="1.89473684"></circle>
            <circle id="Oval-Copy-12" fill="#FE2C54" cx="1.89473684" cy="17.4947368" r="1.89473684"></circle>
            <circle id="Oval-Copy-17" fill="#FE2C54" cx="26.9052632" cy="17.4947368" r="1.89473684"></circle>
            <circle id="Oval-Copy-13" fill="#FE2C55" cx="5.68421053" cy="23.5578947" r="1.89473684"></circle>
            <circle id="Oval-Copy-16" fill="#FE2C55" cx="23.1157895" cy="23.5578947" r="1.89473684"></circle>
            <circle id="Oval-Copy-14" fill="#FE2C55" cx="10.9894737" cy="26.5894737" r="1.89473684"></circle>
            <circle id="Oval-Copy-15" fill="#FE2C55" cx="17.8105263" cy="26.5894737" r="1.89473684"></circle>
            <circle id="Oval-Copy-9" fill="#FD4076" cx="17.8105263" cy="1.89473684" r="1.89473684"></circle>
        </g>
    </g>
</svg>

<svg width="144" height="144" xmlns="http://www.w3.org/2000/svg" xmlns:xlink="http://www.w3.org/1999/xlink"><defs><linearGradient x1="-8.335%" y1="66.102%" x2="438.008%" y2="-77.821%" id="c"><stop stop-color="#010101" stop-opacity="0" offset="0%"/><stop stop-color="#010101" offset="95%"/></linearGradient><linearGradient x1="67.486%" y1="23.805%" x2="-27.707%" y2="166.508%" id="d"><stop stop-color="#010101" stop-opacity="0" offset="0%"/><stop stop-color="#010101" offset="100%"/></linearGradient><ellipse id="a" cx="72" cy="72.348" rx="71.654" ry="72"/><path d="M57.073 30.89l31.221-.021a3.77 3.77 0 013.773 3.772l-.043 60.834a3.77 3.77 0 01-3.767 3.767l-31.221.021a3.77 3.77 0 01-3.773-3.772l.043-60.833a3.77 3.77 0 013.767-3.768z" id="e"/></defs><g fill="none" fill-rule="evenodd"><g transform="translate(0 26)"><ellipse fill="#DC0000" opacity=".298" cx="72" cy="72.348" rx="55.038" ry="55.304"/><ellipse fill="#DC0000" opacity=".497" cx="72.519" cy="72.87" rx="38.942" ry="39.13"/><mask id="b" fill="#fff"><use xlink:href="#a"/></mask><use fill="#DC0000" opacity=".148" xlink:href="#a"/><path d="M141.565 64.821c-1.679 3.146-6.708 2.79-8.901 5.54-.952 1.178-1.2 2.79-1.41 4.297-.974 7.032-1.983 14.043-2.984 21.054 2.743 1.667 5.593 3.488 7.003 6.369 1.411 2.881.515 6.976-2.525 8.03-3.286 1.046-6.298-1.912-9.232-3.712-3.42-2.148-8.823-2.386-10.756 1.158 1.933 1.13 3.915 2.337 5.191 4.186 1.277 1.849 1.658 4.507.268 6.278-2.031 2.498-6.002 1.689-9.014.454-3.011-1.235-6.623-2.553-9.232-.614a18.896 18.896 0 014.972 5.693c.755 1.29 1.298 2.95.459 4.185-.84 1.235-2.688 1.235-4.232.963-7.138-1.312-13.606-6.041-20.771-6.362a10.19 10.19 0 00-1.305 0c-7.413.216-13.521 5.4-19.904 9.16-.252.158-.513.3-.783.425a55.667 55.667 0 01-15.587 6.125c-2.857.649-5.706.188-8.5 1.019-3.18.941-5.783 2.957-8.364 5.022-7.552 6.103-28.92 21.381-35.547 28.495-1.997-7.66-5.882-16.04-7.8-22.025-1.735-5.412-1.64-8.353-1.097-16.273 1.869-.803 17.085-10.49 17.247-10.595a4127.838 4127.838 0 0122.21-13.003 5.673 5.673 0 011.792-.803c2.066-.349 3.64 1.584 4.725 3.412 3.64-5.24 8.852-9.376 14.205-12.864 5.918-3.921 12.139-7.36 18.338-10.827 5.7-3.196 11.426-6.363 17.132-9.565 6.348-3.488 12.787-7.088 19.657-9.557 5.868-2.093 12.033-3.384 17.788-5.776 5.868-2.393 9.994-4.674 16.222-5.693 2.42-.377 6.348-.886 8.421.349 2.074 1.235 3.428 3.3 2.314 5.455z" fill="#663C29" fill-rule="nonzero" mask="url(#b)" transform="rotate(-50 61.565 115.586)"/><path d="M80.729 112.483c-.434 1.7-2.618 2.335-4.424 2.556-.462.15-.842.49-1.05.936a9.805 9.805 0 00-1.295 0c-7.356.221-13.418 5.526-19.752 9.375-.25.162-.51.308-.777.436-.567-1.864-.54-7.198 3.31-19.458.7-2.142 1.484-4.998 2.1-7.069.36-1.37.886-2.69 1.568-3.927 2.407-3.803 6.115-6.557 10.401-7.726a2.97 2.97 0 012.422.079c.812.492.917 1.62.651 2.506-.266.885-.84 1.67-1.134 2.556-1.21 3.32 1.4 6.648 3.423 9.59a36.383 36.383 0 014.123 7.647c.395.767.547 1.64.434 2.5z" fill="url(#c)" fill-rule="nonzero" mask="url(#b)" transform="rotate(-50 66.965 106.586)"/><path d="M56.418 26.378l33.06-.112a4.217 4.217 0 014.232 4.232l-.24 70.85a4.217 4.217 0 01-4.203 4.202l-33.06.113a4.217 4.217 0 01-4.232-4.232l.24-70.85a4.217 4.217 0 014.203-4.203z" fill="#2E2E2E" fill-rule="nonzero" mask="url(#b)" transform="rotate(.07 72.842 65.964)"/><path d="M56.418 26.378l33.06-.112a4.217 4.217 0 014.232 4.232l-.24 70.85a4.217 4.217 0 01-4.203 4.202l-33.06.113a4.217 4.217 0 01-4.232-4.232l.24-70.85a4.217 4.217 0 014.203-4.203z" stroke="#222" stroke-width="1.038" fill="url(#d)" fill-rule="nonzero" mask="url(#b)" transform="rotate(.07 72.842 65.964)"/><path d="M57.254 30.917l30.91-.105a3.77 3.77 0 013.782 3.783l-.206 60.808a3.77 3.77 0 01-3.757 3.757l-30.91.105a3.77 3.77 0 01-3.782-3.783l.206-60.808a3.77 3.77 0 013.757-3.757z" fill="#FFFBFF" fill-rule="nonzero" mask="url(#b)" transform="rotate(.07 72.619 65.039)"/><mask id="f" fill="#fff"><use xlink:href="#e"/></mask><use fill="#FFFBFF" fill-rule="nonzero" xlink:href="#e"/><path fill="#EEEEEF" mask="url(#f)" d="M56.119 71.562h33.349v9.464H56.119zM56.119 83.866h33.349v9.464H56.119zM56.119 96.169h33.349v9.464H56.119z"/><rect fill="#EEEEEF" mask="url(#f)" x="55.166" y="41.277" width="34.302" height="5.679" rx="1.657"/><rect fill="#EEEEEF" mask="url(#f)" x="55.166" y="32.796" width="34.302" height="5.679" rx="1.657"/><path fill="#EEEEEF" mask="url(#f)" d="M55.539 52.167h34.725v17.272H55.539z"/><path d="M30.206 94.719a79.813 79.813 0 0111.141-5.264c7.26-2.96 14.525-5.934 22.044-8.156 2.286-.69 4.586-1.283 6.886-1.883l19.885-5.23c.626 1.952-.285 7.012-1.488 8.682-3.753 5.21-7.53 6.726-13.615 8.98-1.723.635-5.161.629-6.624 1.753a17.542 17.542 0 00-2.814 3.153c-4.396 5.52-10.832 9.722-13.364 16.27-.851 2.173-1.245 4.546-2.504 6.513-1.407 2.16-3.658 3.595-5.86 4.954-8.44 5.237-17.134 10.529-26.84 12.957a6.527 6.527 0 01-3.56.166 6.775 6.775 0 01-2.855-2.298c-2.588-2.987-5.38-5.899-7.793-9.024-2.322-3.016-1.21-4.906 1.146-7.48a223.28 223.28 0 0116.958-17.014 64.77 64.77 0 019.257-7.08z" fill="#663C29" fill-rule="nonzero" mask="url(#f)" transform="rotate(-50 45.965 105.986)"/></g><path d="M51.611 80.845c.123-.174.347-.298.672-.371.326-.074.652-.074.977 0l-.009 8.179-.015 13.07-1.93 4.316.305-25.194z" fill="#663C29"/><g transform="translate(59 76)"><circle fill="#FD2D55" cx="14.4" cy="14.337" r="8.337"/><circle fill="#FD4076" cx="10.989" cy="1.895" r="1.895"/><circle fill="#FE3B6D" cx="4.926" cy="4.926" r="1.895"/><circle fill="#FE3B6D" cx="23.116" cy="4.926" r="1.895"/><circle fill="#FE315F" cx="1.895" cy="10.989" r="1.895"/><circle fill="#FE315F" cx="26.905" cy="10.989" r="1.895"/><circle fill="#FE2C54" cx="1.895" cy="17.495" r="1.895"/><circle fill="#FE2C54" cx="26.905" cy="17.495" r="1.895"/><circle fill="#FE2C55" cx="5.684" cy="23.558" r="1.895"/><circle fill="#FE2C55" cx="23.116" cy="23.558" r="1.895"/><circle fill="#FE2C55" cx="10.989" cy="26.589" r="1.895"/><circle fill="#FE2C55" cx="17.811" cy="26.589" r="1.895"/><circle fill="#FD4076" cx="17.811" cy="1.895" r="1.895"/></g></g></svg>
